X: 200889
T: Tommy Mayland's
S: "First Collection of Traditional Irish Music" (M.Mulvihill)
Z: B.Black
L: 1/8
M: 4/4
R: reel
K: Dmix
Ad (3dcd ed (3dcd|Addf abaf|ed (3dcd edcB|AdcA GE (3EDE :|
ADFA d3 B|c2 cB cAGB|ADFA d2 ed|cAGE ED D2 :|
